packages/sights/assets/overlays/5CFsFvj7.svg

<svg width="500" height="375" viewBox="0 0 500 375" fill="none" xmlns="http://www.w3.org/2000/svg">
<path d="M7.25 43C7.25 43 148.5 23.5 218.5 46.5C218.5 46.5 248.5 55.5 303.5 94.5C303.5 94.5 424.5 108.5 480.5 165.5L482.5 171.5C482.5 171.5 488.91 185.14 490.5 191.5C490.5 191.5 488.5 262.5 464.5 294.5L460.5 259.5L465.5 220.5C465.5 220.5 479.5 209.5 482.5 174.5V171.5" stroke="white" stroke-miterlimit="10"/>
<path d="M476.56 271.12C476.56 271.12 473.5 313.5 442.5 334.5C442.5 334.5 421.5 350.5 361.5 352.5C361.5 352.5 328.5 348.5 317.5 342.5C317.5 342.5 318.5 313.5 315.5 301.5C315.5 301.5 302.5 226.5 218.5 206.5C218.5 206.5 167.5 201.5 172.5 251.5C172.5 251.5 174.5 270.5 178.5 281.5V282.5L7.25 198.5" stroke="white" stroke-miterlimit="10"/>
<path d="M317.09 313.14L300.5 336.5L289 346C265.73 360.43 227.47 345.87 201.67 312.07C174.81 276.89 171.6 234.2 194.5 216.72C196.092 215.5 197.789 214.422 199.57 213.5L214.47 206.5" stroke="white" stroke-miterlimit="10"/>
<path d="M221.9 47.6901C191.29 40.8701 98.5 53.5001 98.5 53.5001C98.5 53.5001 139.5 91.5001 167.5 130.5C167.5 130.5 216.5 128.5 300.5 101.5C300.5 101.5 311.79 96.6602 304.14 94.5802" stroke="white" stroke-miterlimit="10"/>
<path d="M465.5 220.5L460.83 221.04C412.31 226.5 363.5 226.5 363.5 226.5L321.5 218.5L318.5 224.5C318.5 224.5 354.5 259.5 361.5 262.5C361.5 262.5 397.5 266.5 439.5 253.5L449.5 242.5L460.83 221" stroke="white" stroke-miterlimit="10"/>
<path d="M167.5 130.5C167.5 130.5 178.5 153.5 186.5 156.5C186.5 156.5 365.76 214.23 374.63 226.37" stroke="white" stroke-miterlimit="10"/>
<path d="M7.25 50.5198C7.25 50.5198 60.5 34.5198 90.5 59.5198C90.5 59.5198 136.5 103.52 150.5 135.52L123.5 129.52" stroke="white" stroke-miterlimit="10"/>
<path d="M7 100.13L60.5 113.5" stroke="white" stroke-miterlimit="10"/>
<path d="M119.5 124.5V118.82C119.5 118.82 108.5 106.26 98.5 102.88C98.5 102.88 80.5 98.5 55.5 117.5L58.5 126.5C58.5 126.5 71.5 132.5 80.5 133.5C80.5 133.5 108.5 133.5 119.5 124.5Z" stroke="white" stroke-miterlimit="10"/>
<path d="M55.5 117.5C55.5 117.5 64.5 120.5 69.5 120.5C69.5 120.5 101.5 122.13 119.5 118.82" stroke="white" stroke-miterlimit="10"/>
<path d="M119.5 124.5C119.5 124.5 123.19 128.5 123.34 130.5C123.34 130.5 117.5 136.5 113.5 138.5H107.29C107.29 138.5 99.5 134.5 98.5 131.99" stroke="white" stroke-miterlimit="10"/>
<path d="M7 190.55L166.5 268.5L176.34 274.13" stroke="white" stroke-miterlimit="10"/>
<path d="M42.2902 45.6699C42.2902 45.6699 31.2302 71.9299 31.3602 106.22C31.3602 106.22 21.5002 131.5 29.5002 156.5L39.5002 183.5L39.7602 187.5L38.5002 193.5C38.5002 193.5 42.0702 203.09 42.2902 207.79" stroke="white" stroke-miterlimit="10"/>
</svg>

<svg width="500" height="375" fill="none" xmlns="http://www.w3.org/2000/svg"><path d="M7.25 43S148.5 23.5 218.5 46.5c0 0 30 9 85 48 0 0 121 14 177 71l2 6s6.41 13.64 8 20c0 0-2 71-26 103l-4-35 5-39s14-11 17-46v-3" stroke="#fff" stroke-miterlimit="10"/><path d="M476.56 271.12s-3.06 42.38-34.06 63.38c0 0-21 16-81 18 0 0-33-4-44-10 0 0 1-29-2-41 0 0-13-75-97-95 0 0-51-5-46 45 0 0 2 19 6 30v1l-171.25-84" stroke="#fff" stroke-miterlimit="10"/><path d="M317.09 313.14 300.5 336.5 289 346c-23.27 14.43-61.53-.13-87.33-33.93-26.86-35.18-30.07-77.87-7.17-95.35a34.141 34.141 0 0 1 5.07-3.22l14.9-7M221.9 47.69C191.29 40.87 98.5 53.5 98.5 53.5s41 38 69 77c0 0 49-2 133-29 0 0 11.29-4.84 3.64-6.92M465.5 220.5l-4.67.54c-48.52 5.46-97.33 5.46-97.33 5.46l-42-8-3 6s36 35 43 38c0 0 36 4 78-9l10-11 11.33-21.5" stroke="#fff" stroke-miterlimit="10"/><path d="M167.5 130.5s11 23 19 26c0 0 179.26 57.73 188.13 69.87M7.25 50.52s53.25-16 83.25 9c0 0 46 44 60 76l-27-6M7 100.13l53.5 13.37" stroke="#fff" stroke-miterlimit="10"/><path d="M119.5 124.5v-5.68s-11-12.56-21-15.94c0 0-18-4.38-43 14.62l3 9s13 6 22 7c0 0 28 0 39-9Z" stroke="#fff" stroke-miterlimit="10"/><path d="M55.5 117.5s9 3 14 3c0 0 32 1.63 50-1.68M119.5 124.5s3.69 4 3.84 6c0 0-5.84 6-9.84 8h-6.21s-7.79-4-8.79-6.51M7 190.55l159.5 77.95 9.84 5.63M42.29 45.67s-11.06 26.26-10.93 60.55c0 0-9.86 25.28-1.86 50.28l10 27 .26 4-1.26 6s3.57 9.59 3.79 14.29" stroke="#fff" stroke-miterlimit="10"/></svg>
